src/actions/22/transform-rotate.svg

<svg xmlns="http://www.w3.org/2000/svg" viewBox="0 0 22 22">
    <path d="M3 3v16h7v-1H4V4h8v7h1V7.139c1.726.443 3 1.992 3 3.861v1h-5v7h8v-7h-2v-1a4.989 4.989 0 0 0-4-4.9V3H3zm9 10h6v5h-6v-5z" style="fill:currentColor;fill-opacity:1;stroke:none;color:#050505;opacity:.7"/>
</svg>

<svg xmlns="http://www.w3.org/2000/svg" viewBox="0 0 22 22">
  <defs id="defs3051">
    <style type="text/css" id="current-color-scheme">
      .ColorScheme-Text {
        color:#363636;
      }
      </style>
  </defs>
 <path 
    style="fill:currentColor;fill-opacity:1;stroke:none" 
    d="M 3 3 L 3 19 L 4 19 L 10 19 L 10 18 L 4 18 L 4 4 L 12 4 L 12 6 L 12 7 L 12 11 L 13 11 L 13 7.1386719 C 14.726297 7.5823639 16 9.13145 16 11 L 16 12 L 11 12 L 11 13 L 11 19 L 12 19 L 19 19 L 19 18 L 19 13 L 19 12 L 17 12 L 17 11 C 17 8.572831 15.287361 6.5606044 13 6.0996094 L 13 3 L 4 3 L 3 3 z M 12 13 L 18 13 L 18 18 L 12 18 L 12 13 z "
	class="ColorScheme-Text"
    />  
</svg>
